X: 3367
T: Ben's Arrival
R: jig
M: 6/8
K: Gmajor
B,DG BdB|cec d2c|B/ c/ d B gdB|cBc A2 D|
B,DG BdB|cec d2c|B/ c/ d B gdB|cAd G2D|
B,DG BdB|cec d2c|B/ c/ d B gdB|cBc A2D|
B,DG BdB|cec d2c|B/ c/ d B gdB|cAd G2d|
Bdg bag|gag gdB|ded dBd|c3 d2c|
Bdg bag|gag gdB|cac faa|agf g2d|
Bdg bag|gag gdB|ded dBd|c3 d2c|
Bdg bag|gag gdB|cac faa|agf g2G,|

